assets/images/ico_lock.svg

<svg width="16" height="19" viewBox="0 0 16 19" fill="none" xmlns="http://www.w3.org/2000/svg">
<path d="M8.07996 0.726868C5.60636 0.726868 3.60228 2.76179 3.60228 5.27343V7.75337H2.3811C1.7116 7.75337 1.15991 8.31355 1.15991 8.99335V16.4332C1.15991 17.113 1.7116 17.6731 2.3811 17.6731H13.7788C14.4483 17.6731 15 17.113 15 16.4332V8.99335C15 8.31355 14.4483 7.75337 13.7788 7.75337H12.5576V5.27343C12.5576 2.76178 10.5535 0.726868 8.07996 0.726868ZM8.07996 1.55352C10.1166 1.55352 11.7435 3.20545 11.7435 5.27343V7.75337H4.4164V5.27343C4.4164 3.20545 6.04331 1.55352 8.07996 1.55352ZM2.3811 8.58002H13.7788C14.0114 8.58002 14.1859 8.75721 14.1859 8.99335V16.4332C14.1859 16.6693 14.0114 16.8465 13.7788 16.8465H2.3811C2.14854 16.8465 1.97403 16.6693 1.97403 16.4332V8.99335C1.97403 8.75721 2.14854 8.58002 2.3811 8.58002Z" fill="white" stroke="white"/>
<circle cx="8" cy="12" r="1" fill="white"/>
</svg>

<svg width="16" height="19" fill="none" xmlns="http://www.w3.org/2000/svg"><path d="M8.08.727c-2.474 0-4.478 2.035-4.478 4.546v2.48h-1.22c-.67 0-1.222.56-1.222 1.24v7.44c0 .68.552 1.24 1.221 1.24H13.78c.67 0 1.221-.56 1.221-1.24v-7.44c0-.68-.552-1.24-1.221-1.24h-1.221v-2.48c0-2.511-2.005-4.546-4.478-4.546zm0 .827c2.037 0 3.663 1.651 3.663 3.72v2.48H4.416v-2.48c0-2.069 1.627-3.72 3.664-3.72zM2.381 8.58H13.78a.4.4 0 01.407.413v7.44a.4.4 0 01-.407.413H2.38a.4.4 0 01-.407-.413v-7.44a.4.4 0 01.407-.413z" fill="#fff" stroke="#fff"/><circle cx="8" cy="12" r="1" fill="#fff"/></svg>
